X: 225
T:Gilsland Hornpipe
M:4/4
Q:160
S:Browne coll ,early 19thC,Troutbeck,W'morland
K:D
"No Key Sig."FG|A2A2A2FA|BcdBA2FG|AFAF AFAF|GABGE2FG|!
A2A2A2FA|BcdBA2d2|cdef gedc|d2d2d2::!
de|f2f2f2ef|gfed cBAG|FAdf edcd|efgf "sic"f2e2e2ce|!
fefd fdfa|gfed cBAG|Adfg edce|d2d2d2:|]
%%vskip .5cm
